dist/svg/static/lights-led-large.svg

<svg xmlns="http://www.w3.org/2000/svg" width="48" height="48" viewBox="0 0 48 48"><g fill="none" stroke="currentColor" stroke-miterlimit="10"><path d="M13 27.5h1m1 0h1m1 0h1m1 0h1m1 0h1m1 0h1m1 0h1m1 0h1m1 0h1m1 0h1m1 0h1m1-1h1m1-1h1m0-2h1m-1-2h1m-1-2h1m-1-2h1m-15.554 1.767s.842 3.349 6.408 3.349c6.036 0 4.685-7.244 4.685-7.244"/><path d="M21.925 36.142s-8.602 3.264-19.463-10.037l43.075-14.6-2.042 16.718s-.444 3.23-2.285 3.581z"/></g></svg>

<svg xmlns="http://www.w3.org/2000/svg" width="48" height="48" viewBox="0 0 48 48"><g fill="none" stroke="currentColor" stroke-miterlimit="10"><path d="M13 27.5h1M15 27.5h1M17 27.5h1M19 27.5h1M21 27.5h1M23 27.5h1M25 27.5h1M27 27.5h1M29 27.5h1M31 27.5h1M33 27.5h1M35 26.5h1M37 25.5h1M38 23.5h1M38 21.5h1M38 19.5h1M38 17.5h1M23.446 19.267s.842 3.349 6.408 3.349c6.036 0 4.685-7.244 4.685-7.244"/><path d="M21.925 36.142s-8.602 3.264-19.463-10.037l43.075-14.6-2.042 16.718s-.444 3.23-2.285 3.581z"/></g></svg>
